public/theme/icons/gluten.svg

<svg width="33" height="34" viewBox="0 0 33 34" fill="none" xmlns="http://www.w3.org/2000/svg">
<circle cx="15" cy="15" r="15" fill="#E6A803"/>
<path fill-rule="evenodd" clip-rule="evenodd" d="M29.2336 19.7462C29.7308 18.2546 30 16.6587 30 15C30 6.71573 23.2843 0 15 0C6.71573 0 0 6.71573 0 15C0 23.2843 6.71573 30 15 30C16.665 30 18.2667 29.7287 19.7632 29.2279L10.2757 19.7404L13.291 16.7251L11.1599 14.594L14.6583 11.0956L15.4449 5.95746L29.2336 19.7462Z" fill="#F7B507"/>
<g filter="url(#filter0_d_105_29271)">
<path fill-rule="evenodd" clip-rule="evenodd" d="M15.5036 6.02022C15.2301 5.71592 14.7699 5.71592 14.4964 6.02022C13.9213 6.66008 13.0529 7.78562 13.0024 8.79414C12.9467 9.9074 13.8717 11.2016 14.4819 11.9284C14.7574 12.2565 15.2426 12.2565 15.5181 11.9284C16.1284 11.2016 17.0533 9.9074 16.9976 8.79414C16.9472 7.78562 16.0787 6.66008 15.5036 6.02022ZM10.0447 11.2146C10.0105 10.7418 10.4299 10.3912 10.8887 10.5106C11.8291 10.7555 13.2745 11.2586 13.9081 12.1418C14.5101 12.9811 14.567 14.4259 14.5307 15.3515C14.5124 15.8173 14.0679 16.1172 13.6282 15.9624C12.7979 15.67 11.5621 15.1325 10.9579 14.3653C10.3194 13.5544 10.1115 12.1378 10.0447 11.2146ZM19.9554 11.2146C19.9896 10.7418 19.5701 10.3912 19.1113 10.5106C18.1709 10.7555 16.7255 11.2586 16.092 12.1418C15.4899 12.9811 15.4331 14.4259 15.4694 15.3515C15.4876 15.8173 15.9322 16.1172 16.3718 15.9624C17.2021 15.67 18.4379 15.1325 19.0421 14.3653C19.6806 13.5544 19.8886 12.1378 19.9554 11.2146ZM9.8533 14.8158C9.39292 14.7026 8.97329 15.0527 9.00133 15.526C9.0671 16.6358 9.30219 18.5098 10.1258 19.5557C10.9063 20.5468 12.5528 21.223 13.5562 21.5619C13.9978 21.711 14.4416 21.411 14.4662 20.9456C14.5249 19.8359 14.4924 17.9299 13.717 16.849C12.9022 15.713 10.9838 15.0937 9.8533 14.8158ZM20.9987 15.526C21.0268 15.0527 20.6071 14.7026 20.1467 14.8158C19.0162 15.0937 17.0979 15.713 16.283 16.849C15.5077 17.9299 15.4752 19.8359 15.5339 20.9456C15.5585 21.411 16.0022 21.711 16.4438 21.5619C17.4473 21.223 19.0937 20.5468 19.8742 19.5557C20.6978 18.5098 20.9329 16.6358 20.9987 15.526Z" fill="white"/>
</g>
<defs>
<filter id="filter0_d_105_29271" x="5" y="3.79199" width="20" height="23.8085" filterUnits="userSpaceOnUse" color-interpolation-filters="sRGB">
<feFlood flood-opacity="0" result="BackgroundImageFix"/>
<feColorMatrix in="SourceAlpha" type="matrix" values="0 0 0 0 0 0 0 0 0 0 0 0 0 0 0 0 0 0 127 0" result="hardAlpha"/>
<feOffset dy="2"/>
<feGaussianBlur stdDeviation="2"/>
<feComposite in2="hardAlpha" operator="out"/>
<feColorMatrix type="matrix" values="0 0 0 0 0 0 0 0 0 0 0 0 0 0 0 0 0 0 0.1 0"/>
<feBlend mode="normal" in2="BackgroundImageFix" result="effect1_dropShadow_105_29271"/>
<feBlend mode="normal" in="SourceGraphic" in2="effect1_dropShadow_105_29271" result="shape"/>
</filter>
</defs>
</svg>

<svg xmlns="http://www.w3.org/2000/svg" width="33" height="34" fill="none"><circle cx="15" cy="15" r="15" fill="#E6A803"/><path fill="#F7B507" fill-rule="evenodd" d="M29.234 19.746C29.73 18.255 30 16.66 30 15c0-8.284-6.716-15-15-15S0 6.716 0 15s6.716 15 15 15c1.665 0 3.267-.271 4.763-.772l-9.487-9.488 3.015-3.015-2.131-2.131 3.498-3.498.787-5.139z" clip-rule="evenodd"/><g filter="url(#a)"><path fill="#fff" fill-rule="evenodd" d="M15.504 6.02a.67.67 0 0 0-1.008 0c-.575.64-1.443 1.766-1.494 2.774-.055 1.113.87 2.408 1.48 3.134a.668.668 0 0 0 1.036 0c.61-.726 1.535-2.02 1.48-3.134-.05-1.008-.92-2.134-1.494-2.774m-5.46 5.195a.667.667 0 0 1 .845-.704c.94.245 2.386.748 3.02 1.63.601.84.658 2.285.622 3.21a.668.668 0 0 1-.903.611c-.83-.292-2.066-.83-2.67-1.597-.639-.81-.847-2.227-.913-3.15m9.911 0a.667.667 0 0 0-.844-.704c-.94.245-2.386.748-3.019 1.63-.602.84-.659 2.285-.623 3.21a.668.668 0 0 0 .903.611c.83-.292 2.066-.83 2.67-1.597.639-.81.847-2.227.913-3.15m-10.102 3.6a.68.68 0 0 0-.852.711c.066 1.11.301 2.984 1.125 4.03.78.99 2.427 1.667 3.43 2.006.442.149.886-.151.91-.616.059-1.11.026-3.016-.749-4.097-.815-1.136-2.733-1.755-3.864-2.033M21 15.527a.68.68 0 0 0-.852-.71c-1.13.278-3.05.897-3.864 2.033-.775 1.08-.808 2.987-.75 4.097a.68.68 0 0 0 .91.616c1.004-.339 2.65-1.015 3.431-2.006.824-1.046 1.059-2.92 1.125-4.03" clip-rule="evenodd"/></g><defs><filter id="a" width="20" height="23.808" x="5" y="3.792" color-interpolation-filters="sRGB" filterUnits="userSpaceOnUse"><feFlood flood-opacity="0" result="BackgroundImageFix"/><feColorMatrix in="SourceAlpha" result="hardAlpha" values="0 0 0 0 0 0 0 0 0 0 0 0 0 0 0 0 0 0 127 0"/><feOffset dy="2"/><feGaussianBlur stdDeviation="2"/><feComposite in2="hardAlpha" operator="out"/><feColorMatrix values="0 0 0 0 0 0 0 0 0 0 0 0 0 0 0 0 0 0 0.1 0"/><feBlend in2="BackgroundImageFix" result="effect1_dropShadow_105_29271"/><feBlend in="SourceGraphic" in2="effect1_dropShadow_105_29271" result="shape"/></filter></defs></svg>
